frontend/src/books_reading/components/sideBar/img/add-book.svg

<svg width="185" height="38" viewBox="0 0 185 38" fill="none" xmlns="http://www.w3.org/2000/svg">
<rect width="185" height="38" rx="12" fill="#393E46"/>
<path d="M92.5 7C91.9475 7 91.4176 7.21949 91.0269 7.61019C90.6362 8.00089 90.4167 8.5308 90.4167 9.08333V17.4167H82.0833C81.5308 17.4167 81.0009 17.6362 80.6102 18.0269C80.2195 18.4176 80 18.9475 80 19.5C80 20.0525 80.2195 20.5824 80.6102 20.9731C81.0009 21.3638 81.5308 21.5833 82.0833 21.5833H90.4167V29.9167C90.4167 30.4692 90.6362 30.9991 91.0269 31.3898C91.4176 31.7805 91.9475 32 92.5 32C93.0525 32 93.5824 31.7805 93.9731 31.3898C94.3638 30.9991 94.5833 30.4692 94.5833 29.9167V21.5833H102.917C103.469 21.5833 103.999 21.3638 104.39 20.9731C104.781 20.5824 105 20.0525 105 19.5C105 18.9475 104.781 18.4176 104.39 18.0269C103.999 17.6362 103.469 17.4167 102.917 17.4167H94.5833V9.08333C94.5833 8.5308 94.3638 8.00089 93.9731 7.61019C93.5824 7.21949 93.0525 7 92.5 7Z"/>
</svg>

<?xml version="1.0" encoding="utf-8"?>
<!-- Generator: Adobe Illustrator 26.1.0, SVG Export Plug-In . SVG Version: 6.00 Build 0)  -->
<svg version="1.1" id="Слой_1" xmlns="http://www.w3.org/2000/svg" xmlns:xlink="http://www.w3.org/1999/xlink" x="0px" y="0px"
	 viewBox="0 0 185 38" style="enable-background:new 0 0 185 38;" xml:space="preserve">
<style type="text/css">
	.st0{fill:none;}
</style>
<path class="st0" d="M92.5,7c-0.6,0-1.1,0.2-1.5,0.6s-0.6,0.9-0.6,1.5v8.3h-8.3c-0.6,0-1.1,0.2-1.5,0.6c-0.4,0.4-0.6,0.9-0.6,1.5
	s0.2,1.1,0.6,1.5c0.4,0.4,0.9,0.6,1.5,0.6h8.3v8.3c0,0.6,0.2,1.1,0.6,1.5c0.4,0.4,0.9,0.6,1.5,0.6s1.1-0.2,1.5-0.6
	c0.4-0.4,0.6-0.9,0.6-1.5v-8.3h8.3c0.6,0,1.1-0.2,1.5-0.6c0.4-0.4,0.6-0.9,0.6-1.5s-0.2-1.1-0.6-1.5c-0.4-0.4-0.9-0.6-1.5-0.6h-8.3
	V9.1c0-0.6-0.2-1.1-0.6-1.5S93.1,7,92.5,7z"/>
</svg>
